src/assets/images/kolesa-logo.svg

<svg width="215" height="35" viewBox="0 0 215 35" fill="none" xmlns="http://www.w3.org/2000/svg">
<g clip-path="url(#clip0)">
<path d="M29.8286 9.08493C24.8851 9.08493 20.8772 13.0901 20.8772 18.0303C20.8772 22.9705 24.8851 26.9757 29.8286 26.9757C34.772 26.9757 38.7799 22.9705 38.7799 18.0303C38.7939 13.1041 34.786 9.08493 29.8286 9.08493ZM29.8286 23.1659C26.9937 23.1659 24.7035 20.8772 24.7035 18.0443C24.7035 15.2113 26.9937 12.9226 29.8286 12.9226C32.6634 12.9226 34.9536 15.2113 34.9536 18.0443C34.9536 20.8772 32.6634 23.1659 29.8286 23.1659Z" fill="#1C1819"/>
<path d="M46.0694 0.544241H42.2431V26.4872H46.0694V0.544241Z" fill="#1C1819"/>
<path d="M58.7772 9.08493C53.8337 9.08493 49.8258 13.0901 49.8258 18.0303C49.8258 19.8026 50.3425 21.4633 51.2363 22.8589L51.2502 22.8728C51.9345 23.9474 52.8562 24.8545 53.9175 25.5383L53.9315 25.5522C55.3279 26.4454 56.9897 26.9617 58.7632 26.9617C61.5841 26.9617 64.1117 25.6499 65.7456 23.5985L63.0085 20.8632C62.0868 22.2309 60.5367 23.124 58.7632 23.124C58.051 23.124 57.3668 22.9845 56.7523 22.7193L63.4833 15.9928L66.2762 13.2576L66.3181 13.2157C64.7261 10.7317 61.9332 9.08493 58.7772 9.08493ZM53.6522 18.0443C53.6522 15.2113 55.9424 12.9227 58.7772 12.9227C59.4894 12.9227 60.1737 13.0762 60.7881 13.3274L54.0711 20.0399C53.7918 19.4258 53.6522 18.756 53.6522 18.0443Z" fill="#1C1819"/>
<path d="M81.7351 11.7225C80.6459 10.7177 78.6769 9.09888 75.4092 9.09888C72.2113 9.09888 69.167 10.8573 69.1111 14.3321C69.0692 16.9278 70.2702 18.5606 74.4177 19.5096C76.6799 20.0259 78.4395 20.2353 78.4953 21.5191C78.5372 22.5937 77.5039 23.2636 75.4231 23.1798C73.873 23.124 72.1554 22.2727 71.122 20.947L68.4129 23.6404C69.3066 24.673 71.5689 27.0036 75.4092 27.0036C79.3891 27.0036 82.2798 24.6033 82.3217 21.4773C82.3356 20.1515 81.9167 18.3931 80.0734 17.3465C78.8724 16.6627 77.6575 16.4394 75.3673 15.937C73.6357 15.5602 72.8955 15.1416 72.9374 14.2345C72.9793 13.4111 73.901 12.8668 75.465 12.9366C76.666 12.9924 78.0485 13.3832 79.026 14.4298L81.7351 11.7225Z" fill="#1C1819"/>
<path d="M98.8837 11.5829C97.6548 10.1037 95.8255 9.14075 93.7587 9.08493C88.8152 9.08493 84.8073 13.0901 84.8073 18.0303C84.8073 22.9705 88.8152 26.9757 93.7587 26.9757C95.8115 26.9199 97.6548 25.9709 98.8837 24.4777V26.4593H102.71V9.60128H98.8837V11.5829ZM93.7587 23.1659C90.9239 23.1659 88.6337 20.8772 88.6337 18.0443C88.6337 15.2113 90.9239 12.9226 93.7587 12.9226C96.5935 12.9226 98.8837 15.2113 98.8837 18.0443C98.8837 20.8772 96.5935 23.1659 93.7587 23.1659Z" fill="#1C1819"/>
<path d="M164.881 9.08493C159.937 9.08493 155.929 13.0901 155.929 18.0303C155.929 22.9705 159.937 26.9757 164.881 26.9757C169.824 26.9757 173.832 22.9705 173.832 18.0303C173.832 13.1041 169.824 9.08493 164.881 9.08493ZM164.881 23.1659C162.046 23.1659 159.756 20.8772 159.756 18.0443C159.756 15.2113 162.046 12.9226 164.881 12.9226C167.716 12.9226 170.006 15.2113 170.006 18.0443C170.006 20.8772 167.716 23.1659 164.881 23.1659Z" fill="#1C1819"/>
<path d="M189.054 9.61522V19.1328C189.012 21.3656 187.196 23.1659 184.948 23.1659C182.7 23.1659 180.87 21.3656 180.842 19.1328V9.61522H177.016V20.2073C177.016 23.9613 180.06 26.9896 183.803 26.9896C183.845 26.9896 183.887 26.9896 183.943 26.9896C183.971 26.9896 184.012 26.9896 184.04 26.9896C185.954 26.9199 187.657 26.0686 188.858 24.7289C188.928 24.6451 188.998 24.5754 189.068 24.4916V26.4593H192.894V9.61522H189.054Z" fill="#1C1819"/>
<path d="M152.815 9.08493C150.749 9.14075 148.919 10.1037 147.69 11.5829V9.61523H143.864V26.4733H147.69V18.0303C147.704 15.2113 149.994 12.9366 152.815 12.9366C153.164 12.9366 153.5 12.9785 153.821 13.0343V9.14075C153.5 9.11284 153.164 9.08493 152.815 9.08493Z" fill="#1C1819"/>
<path d="M206.049 9.08493C203.982 9.14075 202.153 10.1037 200.924 11.5829V9.61523H197.097V35.014H200.924V24.5056C202.153 25.9849 203.982 26.9478 206.049 27.0036C210.992 27.0036 215 22.9984 215 18.0582C215 13.1041 210.992 9.08493 206.049 9.08493ZM206.049 23.1659C203.214 23.1659 200.924 20.8772 200.924 18.0443C200.924 15.2113 203.214 12.9226 206.049 12.9226C208.884 12.9226 211.174 15.2113 211.174 18.0443C211.174 20.8772 208.884 23.1659 206.049 23.1659Z" fill="#1C1819"/>
<path d="M20.5839 26.4733L10.0266 11.5969L19.5645 0.544241H14.5233L3.82632 12.9366V0.544241H0V26.4733H3.82632V18.7839L7.33145 14.7229L15.6684 26.4733H20.5839Z" fill="#1C1819"/>
<path d="M139.675 12.9226H132.706L128.88 16.7464H135.848V20.1934C135.806 20.2352 135.751 20.2911 135.709 20.3469C131.924 24.1288 125.808 24.1288 122.023 20.3469C118.239 16.565 118.239 10.4525 122.023 6.67065C125.431 3.26554 130.751 2.93061 134.536 5.67982L137.273 2.93061C131.966 -1.29786 124.23 -0.962927 119.314 3.94935C114.035 9.22447 114.035 17.7651 119.314 23.0403C124.593 28.3154 133.139 28.3154 138.418 23.0403C138.879 22.5797 139.298 22.0913 139.675 21.5889V12.9226Z" fill="#1C1819"/>
</g>
<defs>
<clipPath id="clip0">
<rect width="215" height="35" fill="white"/>
</clipPath>
</defs>
</svg>

<svg width="215" height="35" viewBox="0 0 215 35" fill="none" xmlns="http://www.w3.org/2000/svg"><g clip-path="url(#clip0)" fill="#1C1819"><path d="M29.829 9.085c-4.944 0-8.952 4.005-8.952 8.945s4.008 8.946 8.952 8.946c4.943 0 8.95-4.005 8.95-8.946.015-4.926-3.993-8.945-8.95-8.945zm0 14.08a5.118 5.118 0 01-5.126-5.12 5.118 5.118 0 015.126-5.122 5.118 5.118 0 015.125 5.121 5.118 5.118 0 01-5.125 5.122zM46.07.544h-3.827v25.943h3.826V.544zm12.707 8.541c-4.943 0-8.951 4.005-8.951 8.945a8.94 8.94 0 001.41 4.829l.014.014a8.832 8.832 0 002.667 2.665l.014.014a8.946 8.946 0 004.832 1.41 8.913 8.913 0 006.983-3.363l-2.737-2.736a5.097 5.097 0 01-4.246 2.261c-.712 0-1.396-.14-2.01-.405l6.73-6.726 2.793-2.735.042-.042a8.958 8.958 0 00-7.54-4.131zm-5.125 8.96a5.118 5.118 0 015.125-5.122 5.33 5.33 0 012.011.404l-6.717 6.713a4.778 4.778 0 01-.419-1.996zm28.083-6.322c-1.09-1.005-3.058-2.624-6.326-2.624-3.198 0-6.242 1.758-6.298 5.233-.042 2.596 1.16 4.229 5.307 5.178 2.262.516 4.021.725 4.077 2.01.042 1.074-.991 1.744-3.072 1.66-1.55-.056-3.268-.907-4.301-2.233l-2.71 2.693c.895 1.033 3.157 3.364 6.997 3.364 3.98 0 6.87-2.4 6.913-5.527.014-1.326-.405-3.084-2.249-4.13-1.2-.684-2.415-.908-4.706-1.41-1.731-.377-2.472-.795-2.43-1.702.042-.824.964-1.368 2.528-1.298 1.201.055 2.584.446 3.561 1.493l2.71-2.707zm17.149-.14a6.887 6.887 0 00-5.125-2.498c-4.944 0-8.952 4.005-8.952 8.945s4.008 8.946 8.952 8.946a6.863 6.863 0 005.125-2.498v1.981h3.826V9.601h-3.826v1.982zm-5.125 11.583a5.118 5.118 0 01-5.125-5.122 5.118 5.118 0 015.125-5.121 5.118 5.118 0 015.125 5.121 5.118 5.118 0 01-5.125 5.122zm71.122-14.081c-4.944 0-8.952 4.005-8.952 8.945s4.008 8.946 8.952 8.946c4.943 0 8.951-4.005 8.951-8.946 0-4.926-4.008-8.945-8.951-8.945zm0 14.08a5.118 5.118 0 01-5.125-5.12 5.118 5.118 0 015.125-5.122 5.118 5.118 0 015.125 5.121 5.118 5.118 0 01-5.125 5.122zm24.173-13.55v9.518a4.106 4.106 0 01-4.106 4.033c-2.248 0-4.078-1.8-4.106-4.033V9.615h-3.826v10.592a6.783 6.783 0 006.787 6.783h.237a6.77 6.77 0 004.818-2.261c.07-.084.14-.154.21-.237v1.967h3.826V9.615h-3.84zm-36.239-.53a6.889 6.889 0 00-5.125 2.498V9.615h-3.826v16.858h3.826V18.03a5.12 5.12 0 015.125-5.093c.349 0 .685.042 1.006.097V9.141a11.504 11.504 0 00-1.006-.056zm53.234 0a6.887 6.887 0 00-5.125 2.498V9.615h-3.827v25.399h3.827V24.506a6.887 6.887 0 005.125 2.498c4.943 0 8.951-4.006 8.951-8.946 0-4.954-4.008-8.973-8.951-8.973zm0 14.08a5.118 5.118 0 01-5.125-5.12 5.118 5.118 0 015.125-5.122 5.118 5.118 0 015.125 5.121 5.118 5.118 0 01-5.125 5.122zM20.584 26.473L10.027 11.597 19.564.544h-5.04L3.825 12.937V.544H0v25.93h3.826v-7.69l3.505-4.061 8.337 11.75h4.916zm119.091-13.55h-6.969l-3.826 3.823h6.968v3.447a1.52 1.52 0 00-.139.154 9.673 9.673 0 01-13.686 0 9.657 9.657 0 010-13.676c3.408-3.405 8.728-3.74 12.513-.991l2.737-2.75c-5.307-4.228-13.043-3.893-17.959 1.02-5.279 5.274-5.279 13.815 0 19.09s13.825 5.275 19.104 0c.461-.46.88-.949 1.257-1.451v-8.666z"/></g><defs><clipPath id="clip0"><path fill="#fff" d="M0 0h215v35H0z"/></clipPath></defs></svg>
